images/icon-llms-txt.svg

<svg width="42" height="42" viewBox="0 0 42 42" fill="none" xmlns="http://www.w3.org/2000/svg">
<g clip-path="url(#clip0_686_2481)">
<path d="M30.9623 16.7075C30.9623 15.8255 30.6137 14.9813 29.9879 14.3597L24.3179 8.68973C23.6963 8.06813 22.8521 7.71533 21.9701 7.71533H14.3555C12.5201 7.71533 11.0333 9.20213 11.0333 11.0375V18.3917H30.9623V16.7075Z" fill="white"/>
<path d="M11.4029 32.4788V32.4914H11.4113C11.9657 33.554 13.0745 34.2848 14.3597 34.2848H27.6443C28.9253 34.2848 30.0383 33.5582 30.5927 32.4914H30.6011V32.4788C30.7565 32.1764 30.8615 31.8488 30.9203 31.5044H11.0879C11.1467 31.8488 11.2517 32.1806 11.4071 32.4788H11.4029Z" fill="white"/>
<path d="M33.0539 19.4419H8.94591C8.06391 19.4419 7.34991 20.1559 7.34991 21.0379V28.7155C7.34991 29.5975 8.06391 30.3115 8.94591 30.3115H33.0581C33.9401 30.3115 34.6541 29.5975 34.6541 28.7155V21.0379C34.6541 20.1559 33.9401 19.4419 33.0581 19.4419H33.0539ZM14.2673 28.0981H9.83211V21.6763H11.5331V26.6743H14.2673V28.0981ZM20.1977 28.0981H15.7625V21.6763H17.4635V26.6743H20.1977V28.0981ZM26.1575 28.0981H24.7547V26.5861C24.7547 25.8259 24.8933 24.0787 24.9731 23.3269H24.9437L24.4019 25.2337L24.0659 26.3971H23.3141L22.9571 25.2337L22.4615 23.3269H22.4237C22.5035 24.0787 22.6421 25.8259 22.6421 26.5861V28.0981H21.2603V21.6763H22.9907L23.5157 23.7721L23.6921 24.6037H23.7299L23.9063 23.7721L24.4313 21.6763H26.1617V28.0981H26.1575ZM29.5973 28.2157C28.7573 28.2157 27.8291 27.9175 27.1067 27.2959L28.0727 26.1325C28.5557 26.4979 29.1311 26.7541 29.7107 26.7541C30.2231 26.7541 30.4205 26.5861 30.4205 26.3803C30.4205 26.0065 30.0845 25.9267 29.4923 25.6789L28.6901 25.3429C27.9509 25.0657 27.3377 24.4819 27.3377 23.5537C27.3377 22.4575 28.3247 21.5587 29.7863 21.5587C30.5465 21.5587 31.3571 21.8359 31.9787 22.4197L31.1303 23.4865C30.6683 23.1799 30.2987 23.0245 29.6897 23.0245C29.3159 23.0245 29.0555 23.1631 29.0555 23.4613C29.0555 23.7595 29.4209 23.8645 30.0635 24.1039L30.8027 24.4105C31.6637 24.7255 32.1551 25.2799 32.1551 26.1703C32.1551 27.2581 31.2479 28.2241 29.5889 28.2241L29.5973 28.2157Z" fill="white"/>
</g>
<defs>
<clipPath id="clip0_686_2481">
<rect width="42" height="42" rx="6" fill="white"/>
</clipPath>
</defs>
</svg>

<svg width="42" height="42" fill="none" xmlns="http://www.w3.org/2000/svg" role="img" aria-hidden="true" focusable="false"><g clip-path="url(#clip0_496_395)"><path d="M42 0H0v42h42V0z" fill="url(#paint0_linear_496_395)"/><path d="M30.962 16.708c0-.882-.348-1.726-.974-2.348l-5.67-5.67a3.322 3.322 0 0 0-2.348-.974h-7.614a3.321 3.321 0 0 0-3.323 3.322v7.354h19.93v-1.684zM11.403 32.48v.012h.008a3.324 3.324 0 0 0 2.949 1.793h13.284a3.32 3.32 0 0 0 2.949-1.793h.008v-.013c.155-.302.26-.63.32-.974H11.087c.059.344.164.676.32.974h-.005zm21.651-13.038H8.946c-.882 0-1.596.714-1.596 1.596v7.678c0 .882.714 1.596 1.596 1.596h24.112c.882 0 1.596-.714 1.596-1.596v-7.678c0-.882-.714-1.596-1.596-1.596h-.004zM14.267 28.1H9.832v-6.422h1.701v4.998h2.734V28.1zm5.93 0h-4.434v-6.422h1.7v4.998h2.735V28.1zm5.96 0h-1.402v-1.512c0-.76.138-2.508.218-3.26h-.03l-.541 1.907-.336 1.164h-.752l-.357-1.164-.495-1.907h-.038c.08.752.218 2.5.218 3.26V28.1H21.26v-6.422h1.73l.526 2.096.176.831h.038l.176-.831.525-2.096h1.73V28.1h-.004zm3.44.117a3.88 3.88 0 0 1-2.49-.92l.966-1.163c.483.365 1.058.622 1.638.622.512 0 .71-.168.71-.374 0-.374-.337-.454-.929-.702l-.802-.336c-.74-.277-1.352-.86-1.352-1.789 0-1.096.987-1.995 2.448-1.995.76 0 1.571.277 2.193.861l-.849 1.067c-.462-.307-.831-.462-1.44-.462-.374 0-.635.139-.635.437s.366.403 1.009.642l.739.307c.86.315 1.352.87 1.352 1.76 0 1.088-.907 2.054-2.566 2.054l.008-.009z" fill="#fff"/></g><defs><linearGradient id="paint0_linear_496_395" x1="-2.957" y1="16.775" x2="44.957" y2="25.225" gradientUnits="userSpaceOnUse"><stop stop-color="#A61E69"/><stop offset="1" stop-color="#6366F1"/></linearGradient><clipPath id="clip0_496_395"><rect width="42" height="42" rx="6" fill="#fff"/></clipPath></defs></svg>
